static/assets/img/icons/theme/home/ruler.svg

<svg height="24" viewBox="0 0 24 24" width="24" xmlns="http://www.w3.org/2000/svg"><g fill="none" fill-rule="evenodd"><path d="m0 0h24v24h-24z" opacity="0"/><path d="m15 7v1c0 .55228475.4477153 1 1 1s1-.44771525 1-1v-1h2v3c0 .5522847.4477153 1 1 1s1-.4477153 1-1v-3c1.1045695 0 2 .8954305 2 2v6c0 1.1045695-.8954305 2-2 2h-18c-1.1045695 0-2-.8954305-2-2v-6c0-1.1045695.8954305-2 2-2v3c0 .5522847.44771525 1 1 1s1-.4477153 1-1v-3h2v1c0 .55228475.44771525 1 1 1s1-.44771525 1-1v-1h2v3c0 .5522847.4477153 1 1 1s1-.4477153 1-1v-3z" fill="#000" transform="matrix(.70710678 -.70710678 .70710678 .70710678 -4.970563 12)"/></g></svg>

<svg width="24px" height="24px" viewBox="0 0 24 24" version="1.1" xmlns="http://www.w3.org/2000/svg" xmlns:xlink="http://www.w3.org/1999/xlink">
    <title>Icon For Ruller</title>
    <g stroke="none" stroke-width="1" fill="none" fill-rule="evenodd">
        <rect opacity="0" x="0" y="0" width="24" height="24"></rect>
        <path d="M15,7 L15,8 C15,8.55228475 15.4477153,9 16,9 C16.5522847,9 17,8.55228475 17,8 L17,7 L19,7 L19,10 C19,10.5522847 19.4477153,11 20,11 C20.5522847,11 21,10.5522847 21,10 L21,7 C22.1045695,7 23,7.8954305 23,9 L23,15 C23,16.1045695 22.1045695,17 21,17 L3,17 C1.8954305,17 1,16.1045695 1,15 L1,9 C1,7.8954305 1.8954305,7 3,7 L3,10 C3,10.5522847 3.44771525,11 4,11 C4.55228475,11 5,10.5522847 5,10 L5,7 L7,7 L7,8 C7,8.55228475 7.44771525,9 8,9 C8.55228475,9 9,8.55228475 9,8 L9,7 L11,7 L11,10 C11,10.5522847 11.4477153,11 12,11 C12.5522847,11 13,10.5522847 13,10 L13,7 L15,7 Z" fill="#000000" transform="translate(12.000000, 12.000000) rotate(-45.000000) translate(-12.000000, -12.000000) "></path>
    </g>
</svg>
